X: 43
T: Ave decus virginale
N: Derived from Mar2005-Ave_decus_virginale.krn
C: Johannes Martini
%%abc-version 2.0
%%abcx-abcm2ps-target-version 5.9.1 (29 Sep 2008)
%%abc-creator hum2abc beta
%%abcx-conversion-date 2019/02/17 07:19:41
%%abc-edited-by Jesse Rodin
%%abc-edited-by Gage
%%abcx-initial-encoding-date 2014/10/05/
%%humdrum-veritas 266176719
%%humdrum-veritas-data 765262929
%%linebreak <none>
%%barnumbers 0
L: 1/4
M: 2/1
Q: 1/2=120
%%staves [1 2 3 4]
V: 1 clef=treble
V: 2 clef=treble-8
V: 3 clef=treble-8
V: 4 clef=bass
K: F
[V:1] G6FE | 
[V:2] z8 | 
[V:3] z8 | 
[V:4] G,,4A,,4 | 
[V:1] D6E2 | 
[V:2] z8 | 
[V:3] z8 | 
[V:4] B,,8 | 
[V:1] F6ED | 
[V:2] z8 | 
[V:3] z8 | 
[V:4] A,,4D,4 | 
[V:1] E8 | 
[V:2] G4A4 | 
[V:3] z8 | 
[V:4] C,8 | 
[V:1] D8 | 
[V:2] B8 | 
[V:3] z8 | 
[V:4] D,4G,4 | 
[V:1] z4F4 | 
[V:2] A4d4 | 
[V:3] z8 | 
[V:4] F,4D,4 | 
[V:1] G6F2 | 
[V:2] c8 | 
[V:3] G4A4 | 
[V:4] _E,6D,C, | 
[V:1] F4G4 | 
[V:2] d8- | 
[V:3] B8 | 
[V:4] B,,4G,,4 | 
[V:1] A4B4 | 
[V:2] d8 | 
[V:3] A4d4 | 
[V:4] D,8 | 
[V:1] c3BA2G2 | 
[V:2] G8 | 
[V:3] c8 | 
[V:4] _E,8 | 
[V:1] F4G2A2- | 
[V:2] A4B2A2 | 
[V:3] d8- | 
[V:4] D,4G,2F,2- | 
[V:1] AGG4^F2 | 
[V:2] F2G2A4 | 
[V:3] d4z4 | 
[V:4] F,2E,2D,4 | 
[V:1] G4z4 | 
[V:2] G3AB3c | 
[V:3] d6d2 | 
[V:4] G,6A,2 | 
[V:1] G4A4- | 
[V:2] d3ef4 | 
[V:3] d4c4- | 
[V:4] B,4F,4- | 
[V:1] A4F4 | 
[V:2] c4d4 | 
[V:3] c4B4- | 
[V:4] F,4D,4 | 
[V:1] G4c4 | 
[V:2] _e8 | 
[V:3] B4A4 | 
[V:4] C,8 | 
[V:1] d4B4- | 
[V:2] d4f4- | 
[V:3] B4d4 | 
[V:4] B,,8 | 
[V:1] B4A4 | 
[V:2] f4f4 | 
[V:3] c8 | 
[V:4] F,8 | 
[V:1] B4z4 | 
[V:2] d4B4 | 
[V:3] B8 | 
[V:4] G,8 | 
[V:1] G4A4 | 
[V:2] c6BA | 
[V:3] z8 | 
[V:4] C,8 | 
[V:1] B8 | 
[V:2] G4g4 | 
[V:3] z8 | 
[V:4] G,6F,E, | 
[V:1] A4d4- | 
[V:2] f4d2g2- | 
[V:3] z8 | 
[V:4] D,4G,,4 | 
[V:1] d4c4 | 
[V:2] g2f2e4 | 
[V:3] z8 | 
[V:4] G,4A,4 | 
[V:1] d2B3AA2- | 
[V:2] d4f4 | 
[V:3] G4A4 | 
[V:4] B,4F,4 | 
[V:1] A2GFG4 | 
[V:2] d4e4 | 
[V:3] B8 | 
[V:4] G,8 | 
[V:1] A4B2A2- | 
[V:2] d8 | 
[V:3] A4d4 | 
[V:4] D,8 | 
[V:1] A2GFE4 | 
[V:2] z4A4 | 
[V:3] c8 | 
[V:4] A,8 | 
[V:1] D4z4 | 
[V:2] A6B2- | 
[V:3] d8 | 
[V:4] D,6B,,2- | 
[V:1] B4A4 | 
[V:2] B4c4 | 
[V:3] d4z4 | 
[V:4] B,,4F,4 | 
[V:1] G4c4 | 
[V:2] B2d4c2 | 
[V:3] z8 | 
[V:4] G,2B,2A,4 | 
[V:1] B2A3GG2- | 
[V:2] d2e3dd2- | 
[V:3] z8 | 
[V:4] G,2C4B,2 | 
[V:1] G2^F2G4 | 
[V:2] d2c2d4 | 
[V:3] z4B4 | 
[V:4] A,4G,2G,2- | 
[V:1] z8 | 
[V:2] c4B4 | 
[V:3] A4G4 | 
[V:4] G,2F,2G,2E,2- | 
[V:1] z8 | 
[V:2] A4z4 | 
[V:3] c4B2A2- | 
[V:4] E,2C,2D,4 | 
[V:1] z8 | 
[V:2] z8 | 
[V:3] A2G4^F2 | 
[V:4] C,2B,,2A,,4 | 
[V:1] [M:3/1]z12 | 
[V:2] [M:3/1]G4G4A4 | 
[V:3] [M:3/1]G8z4 | 
[V:4] [M:3/1]G,,8z4 | 
[V:1] G4G4A4 | 
[V:2] B8A4 | 
[V:3] z12 | 
[V:4] z12 | 
[V:1] B8A4 | 
[V:2] d8c4 | 
[V:3] z12 | 
[V:4] z12 | 
[V:1] d8c4 | 
[V:2] d2e2f2g2e4 | 
[V:3] z12 | 
[V:4] G,,4G,,4A,,4 | 
[V:1] d4B4c4 | 
[V:2] d8c4 | 
[V:3] G4G4A4 | 
[V:4] B,,8A,,4 | 
[V:1] F4G4A4- | 
[V:2] d4B4c4 | 
[V:3] B8A4 | 
[V:4] D,4G,4F,4 | 
[V:1] A4G8 | 
[V:2] F4G6F2 | 
[V:3] d4c6B2 | 
[V:4] D,4E,8 | 
[V:1] F8E4 | 
[V:2] A12 | 
[V:3] d8z4 | 
[V:4] D,12 | 
[V:1] F8G4 | 
[V:2] B8f4- | 
[V:3] d8d4 | 
[V:4] B,,8B,,4 | 
[V:1] A6G2B4- | 
[V:2] f4f4d4 | 
[V:3] c8B4- | 
[V:4] F,8G,4- | 
[V:1] B2A2c6B2 | 
[V:2] e4f4d4- | 
[V:3] B4A4B4 | 
[V:4] G,4F,4G,4 | 
[V:1] B8A4 | 
[V:2] d2e2f8 | 
[V:3] d4c8 | 
[V:4] B,4F,8 | 
[V:1] B8z4 | 
[V:2] d8c4 | 
[V:3] B8z4 | 
[V:4] G,4G,4A,4 | 
[V:1] G8A4 | 
[V:2] d6e2f4 | 
[V:3] z12 | 
[V:4] B,8A,4 | 
[V:1] B8A4 | 
[V:2] g8f4 | 
[V:3] G8A4 | 
[V:4] G,4E,4F,4 | 
[V:1] G4D4F4- | 
[V:2] d6c2d4 | 
[V:3] B8A4 | 
[V:4] G,8D,4- | 
[V:1] F4E8 | 
[V:2] A6G2A4 | 
[V:3] d8^c4 | 
[V:4] D,4A,,8 | 
[V:1] D8z4 | 
[V:2] F8f4 | 
[V:3] d8d4 | 
[V:4] B,,12 | 
[V:1] B8A4 | 
[V:2] g8f2e2 | 
[V:3] z12 | 
[V:4] G,,8D,4 | 
[V:1] G4c8 | 
[V:2] d4e4f4 | 
[V:3] B8A4 | 
[V:4] G,8F,4 | 
[V:1] B4A8 | 
[V:2] d4c4A4 | 
[V:3] G4c8 | 
[V:4] G,4A,4F,4 | 
[V:1] G4z4F4 | 
[V:2] B2c2d8 | 
[V:3] B4A6G2 | 
[V:4] G,4D,8 | 
[V:1] G4B4A4 | 
[V:2] d8d4 | 
[V:3] G8F4 | 
[V:4] G,,8D,4 | 
[V:1] B4A6G2 | 
[V:2] d8d4 | 
[V:3] G4A4B4 | 
[V:4] G,4F,4G,4 | 
[V:1] G8^F4 | 
[V:2] _e4d8 | 
[V:3] c4A8 | 
[V:4] C,4D,8 | 
[V:1] G12 |]  
[V:2] d12 |]  
[V:3] G12 |]  
[V:4] G,,12 |]  



